dist/svgs/crypto-icons/icons/brx.svg

<?xml version="1.0" encoding="UTF-8" standalone="yes"?>
<svg xmlns="http://www.w3.org/2000/svg" xmlns:xlink="http://www.w3.org/1999/xlink" width="512px" height="512px" viewBox="0 0 384 384" version="1.1">
  <g id="surface1">
    <path style=" stroke:none;fill-rule:nonzero;fill:rgb(0%,0%,0%);fill-opacity:1;" d="M 141.039062 190.550781 C 144.871094 190.09375 154.144531 183.421875 154.527344 171.082031 C 154.835938 155.445312 148.050781 143.183594 128.066406 143.183594 L 97.5 143.183594 L 97.5 245.128906 L 127.699219 245.128906 C 138.738281 245.128906 155.601562 239.148438 158.207031 220.292969 C 160.8125 201.4375 150.847656 193.3125 141.039062 190.550781 Z M 115.539062 161.066406 L 125.144531 161.066406 C 132.605469 161.066406 136.644531 164.132812 136.644531 172.871094 C 136.644531 181.609375 129.644531 184.113281 125.042969 184.113281 L 115.539062 184.113281 Z M 126.839844 226.984375 L 115.539062 226.984375 L 115.539062 200.515625 L 126.960938 200.515625 C 135.828125 200.515625 140.628906 204.039062 140.628906 214.074219 C 140.628906 224.109375 132.304688 226.984375 126.839844 226.984375 Z M 225.761719 174.96875 C 225.761719 151.152344 211.453125 143.183594 197.351562 143.183594 L 165.566406 143.183594 L 165.566406 245.128906 L 183.964844 245.128906 L 183.964844 208.183594 C 186.167969 208.183594 193.117188 208.171875 193.554688 208.160156 L 209.335938 245.128906 L 229.648438 245.128906 L 211.292969 204.019531 C 220.234375 199.191406 225.761719 189.925781 225.761719 174.96875 Z M 192.238281 190.09375 L 183.960938 190.09375 L 183.960938 161.066406 L 193.261719 161.066406 C 199.90625 161.066406 207.875 163.519531 207.875 175.679688 C 207.875 187.84375 198.472656 190.09375 192.238281 190.09375 Z M 278.394531 143.183594 L 266.742188 179.207031 L 253.867188 143.183594 L 233.476562 143.183594 L 254.480469 192.699219 L 232.25 245.128906 L 251.71875 245.128906 L 264.902344 208.183594 L 279.3125 245.128906 L 299.550781 245.128906 L 277.320312 194.15625 L 298.171875 143.183594 Z M 278.394531 143.183594 "/>
    <path style=" stroke:none;fill-rule:nonzero;fill:rgb(0%,0%,0%);fill-opacity:1;" d="M 377.980469 145.363281 L 358.078125 156.851562 C 358.078125 156.851562 344.363281 142.292969 328.382812 114.609375 C 312.398438 86.929688 306.648438 67.769531 306.648438 67.769531 L 327.191406 55.910156 C 304.621094 33.429688 276.484375 16.539062 245.027344 7.480469 L 245.027344 32.191406 C 245.027344 32.191406 225.558594 36.792969 193.59375 36.792969 C 161.628906 36.792969 142.160156 32.191406 142.160156 32.191406 L 142.160156 6.507812 C 109.890625 15.136719 80.976562 31.964844 57.78125 54.628906 L 80.539062 67.769531 C 80.539062 67.769531 74.789062 86.929688 58.804688 114.609375 C 42.824219 142.292969 29.109375 156.851562 29.109375 156.851562 L 6.121094 143.582031 C 2.046875 159.339844 -0.0117188 175.554688 0 191.832031 C 0 208.871094 2.234375 225.386719 6.402344 241.117188 L 29.109375 228.007812 C 29.109375 228.007812 42.824219 242.570312 58.804688 270.25 C 74.785156 297.929688 80.539062 317.089844 80.539062 317.089844 L 58.550781 329.785156 C 81.613281 352.070312 110.246094 368.625 142.160156 377.15625 L 142.160156 352.667969 C 142.160156 352.667969 161.628906 348.066406 193.59375 348.066406 C 225.558594 348.066406 245.027344 352.667969 245.027344 352.667969 L 245.027344 376.183594 C 276.128906 367.222656 303.980469 350.605469 326.421875 328.507812 L 306.648438 317.089844 C 306.648438 317.089844 312.398438 297.929688 328.382812 270.246094 C 344.363281 242.566406 358.078125 228.007812 358.078125 228.007812 L 377.726562 239.347656 C 381.675781 223.816406 383.671875 207.855469 383.660156 191.828125 C 383.667969 176.167969 381.761719 160.5625 377.980469 145.363281 Z M 191.832031 340.5625 C 109.6875 340.5625 43.097656 273.972656 43.097656 191.832031 C 43.097656 109.6875 109.6875 43.097656 191.832031 43.097656 C 273.972656 43.097656 340.5625 109.6875 340.5625 191.832031 C 340.5625 273.972656 273.972656 340.5625 191.832031 340.5625 Z M 191.832031 340.5625 "/>
  </g>
</svg>

<svg xmlns="http://www.w3.org/2000/svg" viewBox="0 0 384 384"><path d="M141.04 190.55c3.831-.456 13.105-7.128 13.487-19.468.309-15.637-6.476-27.898-26.46-27.898H97.5v101.945h30.2c11.038 0 27.902-5.98 30.507-24.836 2.606-18.856-7.36-26.98-17.168-29.742zm-25.5-29.484h9.605c7.46 0 11.5 3.067 11.5 11.805s-7 11.242-11.602 11.242h-9.504zm11.3 65.918h-11.3v-26.468h11.42c8.868 0 13.669 3.523 13.669 13.558s-8.324 12.91-13.79 12.91zm98.922-52.015c0-23.817-14.309-31.785-28.41-31.785h-31.786v101.945h18.399v-36.945c2.203 0 9.152-.012 9.59-.024l15.78 36.969h20.313l-18.355-41.11c8.941-4.828 14.469-14.093 14.469-29.05zm-33.524 15.125h-8.277v-29.028h9.3c6.645 0 14.614 2.454 14.614 14.614 0 12.164-9.402 14.414-15.637 14.414zm86.157-46.91l-11.653 36.023-12.875-36.023h-20.39l21.003 49.515-22.23 52.43h19.469l13.183-36.945 14.41 36.945h20.239l-22.23-50.973 20.85-50.972zm0 0"/><path d="M377.98 145.363l-19.902 11.489s-13.715-14.559-29.695-42.243c-15.985-27.68-21.735-46.84-21.735-46.84l20.543-11.859c-22.57-22.48-50.707-39.37-82.164-48.43v24.711s-19.468 4.602-51.433 4.602-51.434-4.602-51.434-4.602V6.508c-32.27 8.629-61.183 25.457-84.379 48.12L80.54 67.77s-5.75 19.16-21.734 46.84c-15.98 27.683-29.696 42.242-29.696 42.242l-22.988-13.27A192.212 192.212 0 000 191.832c0 17.04 2.234 33.555 6.402 49.285l22.707-13.11s13.715 14.563 29.696 42.243c15.98 27.68 21.734 46.84 21.734 46.84l-21.988 12.695c23.062 22.285 51.695 38.84 83.61 47.371v-24.488s19.468-4.602 51.433-4.602 51.433 4.602 51.433 4.602v23.516c31.102-8.961 58.953-25.579 81.395-47.676l-19.774-11.418s5.75-19.16 21.735-46.844c15.98-27.68 29.695-42.238 29.695-42.238l19.649 11.34a192.246 192.246 0 005.933-47.52 192.074 192.074 0 00-5.68-46.465zm-186.148 195.2c-82.144 0-148.734-66.59-148.734-148.731 0-82.144 66.59-148.734 148.734-148.734 82.14 0 148.73 66.59 148.73 148.734 0 82.14-66.59 148.73-148.73 148.73zm0 0"/></svg>
